X: 20285
T: Joey Clement's
R: polka
M: 2/4
K: Edorian
|:Bc BA|FE D2|EF AF|DE FA|
Bc BA|FE D2|EF AF|E2 E2:|
|:Be ed|fe d2|Be ed|ed/e/ fe|
d2 dB|AF D>E|FD AF|E2 E2:|

